apps/ui/src/assets/honeybee.svg

<?xml version="1.0" encoding="UTF-8" standalone="no"?>
<svg
   version="1.1"
   viewBox="0 0 594.99997 850"
   id="svg24"
   sodipodi:docname="honeybee.svg"
   width="595"
   height="850"
   inkscape:version="1.2.2 (b0a8486541, 2022-12-01)"
   xmlns:inkscape="http://www.inkscape.org/namespaces/inkscape"
   xmlns:sodipodi="http://sodipodi.sourceforge.net/DTD/sodipodi-0.dtd"
   xmlns="http://www.w3.org/2000/svg"
   xmlns:svg="http://www.w3.org/2000/svg">
  <sodipodi:namedview
     id="namedview14"
     pagecolor="#ffffff"
     bordercolor="#666666"
     borderopacity="1.0"
     inkscape:showpageshadow="2"
     inkscape:pageopacity="0.0"
     inkscape:pagecheckerboard="0"
     inkscape:deskcolor="#d1d1d1"
     showgrid="false"
     inkscape:zoom="0.76953125"
     inkscape:cx="512"
     inkscape:cy="512"
     inkscape:window-width="1920"
     inkscape:window-height="1043"
     inkscape:window-x="0"
     inkscape:window-y="0"
     inkscape:window-maximized="1"
     inkscape:current-layer="svg24" />
  <defs
     id="defs28" />
  <g
     id="g253"
     transform="matrix(1.0017355,0,0,1.0011082,-212.25019,-67.994558)">
    <g
       stroke-width="2"
       fill="none"
       stroke-linecap="butt"
       id="g12">
      <path
         stroke="#8b8c86"
         vector-effect="non-scaling-stroke"
         d="m 488.54,435.53 q -8.84,3.2 -13.68,6.57 -3.57,2.48 -9.63,6.84 a 0.75,0.74 56.4 0 1 -1.07,-0.22 c -11.91,-19.3 -35.23,-42.67 -59.87,-41.55 -5.3,0.25 -10.73,3.83 -11.39,9.52 q -0.47,4.02 0.97,6.44 c 3.59,6.01 9.42,6.35 16.19,7.3 17.9,2.51 31.41,15.03 40.84,30.01 a 0.9,0.9 0 0 1 -0.12,1.12 q -19.53,19.65 -21.54,46.87 c -1.46,19.9 2.49,38.51 17.24,52.5 a 0.58,0.58 0 0 1 0.05,0.79 l -10.65,13 a 0.55,0.55 0 0 1 -0.72,0.12 Q 423.97,567.9 413.47,561.28 C 380.71,540.63 345.11,526.55 306.86,521.4 q -20.21,-2.72 -39.34,-0.9 c -22.42,2.14 -53.34,13.15 -54.58,40.31 q -0.56,12.18 4.32,23.93 c 11.97,28.84 34.82,52.02 62.41,66.09 16.57,8.45 35.86,13.35 53.77,11.81 q 16.46,-1.42 32.82,-6.8 a 0.39,0.39 0 0 1 0.36,0.67 c -20.39,16.51 -44.45,40.68 -45.36,68.68 -0.43,13.37 7.99,19.43 20.31,19.44 19.72,0.02 38.14,-10.88 53.45,-22.94 a 0.34,0.34 0 0 1 0.55,0.28 q -0.28,14.48 1.86,27.87 c 4.08,25.5 12.87,50.3 26.74,72.25 14.18,22.42 32.93,42.06 56.4,54.57 a 6.39,6.36 -86.5 0 1 2.94,3.34 q 5.09,13.39 12.51,25.1 3.41,5.38 8.08,9.12 c 3.91,3.13 7.39,1.71 10.6,-1.27 9.42,-8.75 14.86,-22.55 19.44,-33.75 a 4.77,4.77 0 0 1 2.23,-2.42 q 11.43,-5.79 21.58,-14.56 c 41.12,-35.52 63.29,-85.66 64,-140.23 a 0.27,0.27 0 0 1 0.43,-0.21 c 15.93,12.37 34.72,23.69 55.62,22.75 21.95,-0.99 19.92,-23.48 14.32,-37.86 -7.94,-20.37 -23.63,-35.98 -40.2,-49.96 a 0.33,0.33 0 0 1 0.31,-0.56 q 12.95,4.27 26.58,6.46 c 12.59,2.01 23.4,1.8 34.92,-1.47 21.13,-5.99 41.69,-19.11 57.7,-34.25 16.03,-15.16 29.37,-35.35 32.72,-57.06 3.45,-22.41 -11.21,-38.42 -31.62,-44.85 -19.89,-6.27 -42.4,-6.43 -62.74,-3.28 -36.09,5.57 -68.99,18.41 -100.66,36.65 q -19.42,11.19 -27.88,16.37 a 0.53,0.53 0 0 1 -0.69,-0.13 l -10.34,-13.04 a 0.31,0.31 0 0 1 0.02,-0.42 c 15.27,-15.4 19.23,-35.27 16.55,-56.68 q -3.03,-24.22 -20.82,-42.98 a 1.28,1.28 0 0 1 -0.15,-1.57 c 7.6,-11.85 19.44,-24.02 33.01,-27.88 q 5.68,-1.61 13.94,-2.59 6.02,-0.7 9.5,-5.22 c 2.57,-3.33 2.44,-8.97 -0.39,-12.29 -8.09,-9.5 -25.66,-3.26 -34.77,1.95 -14.53,8.31 -25.83,20.47 -34.79,34.51 a 1,1 0 0 1 -1.47,0.24 Q 540.5,440.17 528,435.8"
         id="path2" />
      <path
         stroke="#f5d98d"
         vector-effect="non-scaling-stroke"
         d="m 528,435.8 q -0.33,-22.06 0.23,-28.3 1.24,-13.64 6.02,-25.27 c 5.82,-14.12 12.69,-26.96 23.37,-37.61 12.07,-12.02 19.46,-18.82 28.25,-30.05 q 20.6,-26.32 20.09,-60.12 -0.39,-25.11 -11.45,-48.97 -14.02,-30.25 -30.09,-55.91 -26.48,-42.31 -55.17,-80.35 A 0.77,0.77 0 0 0 508.29,69 q -0.21,0.11 -0.54,0.5 -10.55,12.59 -20.66,26.58 -20.83,28.81 -40.47,61.01 -15.83,25.96 -27.35,51.67 c -8.31,18.54 -10.94,38.58 -9.03,59.49 2.29,25.08 15.92,46.83 34.19,63.59 q 11.5,10.54 16.37,15.86 11.47,12.49 19.09,29.38 6.88,15.23 7.96,28.16 0.57,6.93 0.69,30.29"
         id="path4" />
      <path
         stroke="#81681c"
         vector-effect="non-scaling-stroke"
         d="m 528,435.8 q -19.3,-5.89 -39.46,-0.27"
         id="path6" />
      <path
         stroke="#81681c"
         vector-effect="non-scaling-stroke"
         d="m 607.95,688.23 -13.94,-37.62 a 0.76,0.76 0 0 0 -0.94,-0.46 c -54.55,16.94 -113.98,17.44 -168.51,-0.09 a 1.13,1.12 18.9 0 0 -1.4,0.68 l -13.3,36.03 a 0.94,0.94 0 0 0 0.4,1.13 q 18.7,10.82 40.31,15.98 51.68,12.34 103.65,3.28 c 19.14,-3.34 36.79,-9.17 53.38,-18.01 a 0.75,0.74 -24.4 0 0 0.35,-0.92"
         id="path8" />
      <path
         stroke="#81681c"
         vector-effect="non-scaling-stroke"
         d="m 604.17,754.03 c -21.67,12.58 -45.07,17.65 -70.66,19.95 q -48.03,4.33 -93.63,-9.12 -14.62,-4.31 -26.57,-10.26 a 0.18,0.18 0 0 0 -0.26,0.2 q 4.93,23.39 17.2,44.24 c 2.31,3.92 7.22,6.11 11.69,8.07 23.65,10.35 48.6,13.92 74.53,12.93 23.08,-0.89 43.79,-5.33 64.06,-15.52 q 4.71,-2.36 6.84,-4.85 a 5.18,4.71 -13.2 0 0 0.57,-0.83 q 11.55,-21.05 16.53,-44.59 a 0.2,0.2 0 0 0 -0.3,-0.22"
         id="path10" />
    </g>
    <path
       fill="#ebb523"
       d="m 528,435.8 q -19.3,-5.89 -39.46,-0.27 -0.12,-23.36 -0.69,-30.29 -1.08,-12.93 -7.96,-28.16 -7.62,-16.89 -19.09,-29.38 -4.87,-5.32 -16.37,-15.86 c -18.27,-16.76 -31.9,-38.51 -34.19,-63.59 -1.91,-20.91 0.72,-40.95 9.03,-59.49 q 11.52,-25.71 27.35,-51.67 19.64,-32.2 40.47,-61.01 10.11,-13.99 20.66,-26.58 0.33,-0.39 0.54,-0.5 a 0.77,0.77 0 0 1 0.96,0.22 q 28.69,38.04 55.17,80.35 16.07,25.66 30.09,55.91 11.06,23.86 11.45,48.97 0.51,33.8 -20.09,60.12 c -8.79,11.23 -16.18,18.03 -28.25,30.05 -10.68,10.65 -17.55,23.49 -23.37,37.61 q -4.78,11.63 -6.02,25.27 -0.56,6.24 -0.23,28.3 z"
       id="path16" />
    <path
       fill="#171b14"
       d="m 488.54,435.53 q 20.16,-5.62 39.46,0.27 12.5,4.37 23.05,12.82 a 1,1 0 0 0 1.47,-0.24 c 8.96,-14.04 20.26,-26.2 34.79,-34.51 9.11,-5.21 26.68,-11.45 34.77,-1.95 2.83,3.32 2.96,8.96 0.39,12.29 q -3.48,4.52 -9.5,5.22 -8.26,0.98 -13.94,2.59 c -13.57,3.86 -25.41,16.03 -33.01,27.88 a 1.28,1.28 0 0 0 0.15,1.57 q 17.79,18.76 20.82,42.98 c 2.68,21.41 -1.28,41.28 -16.55,56.68 a 0.31,0.31 0 0 0 -0.02,0.42 l 10.34,13.04 a 0.53,0.53 0 0 0 0.69,0.13 q 8.46,-5.18 27.88,-16.37 C 641,540.11 673.9,527.27 709.99,521.7 c 20.34,-3.15 42.85,-2.99 62.74,3.28 20.41,6.43 35.07,22.44 31.62,44.85 -3.35,21.71 -16.69,41.9 -32.72,57.06 -16.01,15.14 -36.57,28.26 -57.7,34.25 -11.52,3.27 -22.33,3.48 -34.92,1.47 q -13.63,-2.19 -26.58,-6.46 a 0.33,0.33 0 0 0 -0.31,0.56 c 16.57,13.98 32.26,29.59 40.2,49.96 5.6,14.38 7.63,36.87 -14.32,37.86 -20.9,0.94 -39.69,-10.38 -55.62,-22.75 a 0.27,0.27 0 0 0 -0.43,0.21 c -0.71,54.57 -22.88,104.71 -64,140.23 q -10.15,8.77 -21.58,14.56 a 4.77,4.77 0 0 0 -2.23,2.42 c -4.58,11.2 -10.02,25 -19.44,33.75 -3.21,2.98 -6.69,4.4 -10.6,1.27 q -4.67,-3.74 -8.08,-9.12 -7.42,-11.71 -12.51,-25.1 a 6.36,6.39 3.5 0 0 -2.94,-3.34 C 457.1,864.15 438.35,844.51 424.17,822.09 410.3,800.14 401.51,775.34 397.43,749.84 q -2.14,-13.39 -1.86,-27.87 a 0.34,0.34 0 0 0 -0.55,-0.28 c -15.31,12.06 -33.73,22.96 -53.45,22.94 -12.32,-0.01 -20.74,-6.07 -20.31,-19.44 0.91,-28 24.97,-52.17 45.36,-68.68 a 0.39,0.39 0 0 0 -0.36,-0.67 q -16.36,5.38 -32.82,6.8 c -17.91,1.54 -37.2,-3.36 -53.77,-11.81 -27.59,-14.07 -50.44,-37.25 -62.41,-66.09 q -4.88,-11.75 -4.32,-23.93 c 1.24,-27.16 32.16,-38.17 54.58,-40.31 q 19.13,-1.82 39.34,0.9 c 38.25,5.15 73.85,19.23 106.61,39.88 q 10.5,6.62 21.69,13.56 a 0.55,0.55 0 0 0 0.72,-0.12 l 10.65,-13 a 0.58,0.58 0 0 0 -0.05,-0.79 c -14.75,-13.99 -18.7,-32.6 -17.24,-52.5 q 2.01,-27.22 21.54,-46.87 a 0.9,0.9 0 0 0 0.12,-1.12 c -9.43,-14.98 -22.94,-27.5 -40.84,-30.01 -6.77,-0.95 -12.6,-1.29 -16.19,-7.3 q -1.44,-2.42 -0.97,-6.44 c 0.66,-5.69 6.09,-9.27 11.39,-9.52 24.64,-1.12 47.96,22.25 59.87,41.55 a 0.75,0.74 56.4 0 0 1.07,0.22 q 6.06,-4.36 9.63,-6.84 4.84,-3.37 13.68,-6.57 z m 119.41,252.7 -13.94,-37.62 a 0.76,0.76 0 0 0 -0.94,-0.46 c -54.55,16.94 -113.98,17.44 -168.51,-0.09 a 1.13,1.12 18.9 0 0 -1.4,0.68 l -13.3,36.03 a 0.94,0.94 0 0 0 0.4,1.13 q 18.7,10.82 40.31,15.98 51.68,12.34 103.65,3.28 c 19.14,-3.34 36.79,-9.17 53.38,-18.01 a 0.74,0.75 65.6 0 0 0.35,-0.92 z m -3.78,65.8 c -21.67,12.58 -45.07,17.65 -70.66,19.95 q -48.03,4.33 -93.63,-9.12 -14.62,-4.31 -26.57,-10.26 a 0.18,0.18 0 0 0 -0.26,0.2 q 4.93,23.39 17.2,44.24 c 2.31,3.92 7.22,6.11 11.69,8.07 23.65,10.35 48.6,13.92 74.53,12.93 23.08,-0.89 43.79,-5.33 64.06,-15.52 q 4.71,-2.36 6.84,-4.85 a 4.71,5.18 76.8 0 0 0.57,-0.83 q 11.55,-21.05 16.53,-44.59 a 0.2,0.2 0 0 0 -0.3,-0.22 z"
       id="path18" />
    <path
       fill="#ebb523"
       d="m 607.95,688.23 a 0.74,0.75 65.6 0 1 -0.35,0.92 c -16.59,8.84 -34.24,14.67 -53.38,18.01 q -51.97,9.06 -103.65,-3.28 -21.61,-5.16 -40.31,-15.98 a 0.94,0.94 0 0 1 -0.4,-1.13 l 13.3,-36.03 a 1.13,1.12 18.9 0 1 1.4,-0.68 c 54.53,17.53 113.96,17.03 168.51,0.09 a 0.76,0.76 0 0 1 0.94,0.46 z"
       id="path20" />
    <path
       fill="#ebb523"
       d="m 604.17,754.03 a 0.2,0.2 0 0 1 0.3,0.22 q -4.98,23.54 -16.53,44.59 a 4.71,5.18 76.8 0 1 -0.57,0.83 q -2.13,2.49 -6.84,4.85 c -20.27,10.19 -40.98,14.63 -64.06,15.52 -25.93,0.99 -50.88,-2.58 -74.53,-12.93 -4.47,-1.96 -9.38,-4.15 -11.69,-8.07 q -12.27,-20.85 -17.2,-44.24 a 0.18,0.18 0 0 1 0.26,-0.2 q 11.95,5.95 26.57,10.26 45.6,13.45 93.63,9.12 c 25.59,-2.3 48.99,-7.37 70.66,-19.95 z"
       id="path22" />
  </g>
</svg>

<?xml version="1.0" encoding="UTF-8" standalone="no"?>
<svg
   version="1.1"
   viewBox="0.00 0.00 1024.00 1024.00"
   id="svg24"
   xmlns="http://www.w3.org/2000/svg"
   xmlns:svg="http://www.w3.org/2000/svg">
  <defs
     id="defs28" />
  <g
     stroke-width="2.00"
     fill="none"
     stroke-linecap="butt"
     id="g12">
    <path
       stroke="#8b8c86"
       vector-effect="non-scaling-stroke"
       d="   M 488.54 435.53   Q 479.70 438.73 474.86 442.10   Q 471.29 444.58 465.23 448.94   A 0.75 0.74 56.4 0 1 464.16 448.72   C 452.25 429.42 428.93 406.05 404.29 407.17   C 398.99 407.42 393.56 411.00 392.90 416.69   Q 392.43 420.71 393.87 423.13   C 397.46 429.14 403.29 429.48 410.06 430.43   C 427.96 432.94 441.47 445.46 450.90 460.44   A 0.90 0.90 0.0 0 1 450.78 461.56   Q 431.25 481.21 429.24 508.43   C 427.78 528.33 431.73 546.94 446.48 560.93   A 0.58 0.58 0.0 0 1 446.53 561.72   L 435.88 574.72   A 0.55 0.55 0.0 0 1 435.16 574.84   Q 423.97 567.90 413.47 561.28   C 380.71 540.63 345.11 526.55 306.86 521.40   Q 286.65 518.68 267.52 520.50   C 245.10 522.64 214.18 533.65 212.94 560.81   Q 212.38 572.99 217.26 584.74   C 229.23 613.58 252.08 636.76 279.67 650.83   C 296.24 659.28 315.53 664.18 333.44 662.64   Q 349.90 661.22 366.26 655.84   A 0.39 0.39 0.0 0 1 366.62 656.51   C 346.23 673.02 322.17 697.19 321.26 725.19   C 320.83 738.56 329.25 744.62 341.57 744.63   C 361.29 744.65 379.71 733.75 395.02 721.69   A 0.34 0.34 0.0 0 1 395.57 721.97   Q 395.29 736.45 397.43 749.84   C 401.51 775.34 410.30 800.14 424.17 822.09   C 438.35 844.51 457.10 864.15 480.57 876.66   A 6.39 6.36 -86.5 0 1 483.51 880.00   Q 488.60 893.39 496.02 905.10   Q 499.43 910.48 504.10 914.22   C 508.01 917.35 511.49 915.93 514.70 912.95   C 524.12 904.20 529.56 890.40 534.14 879.20   A 4.77 4.77 0.0 0 1 536.37 876.78   Q 547.80 870.99 557.95 862.22   C 599.07 826.70 621.24 776.56 621.95 721.99   A 0.27 0.27 0.0 0 1 622.38 721.78   C 638.31 734.15 657.10 745.47 678.00 744.53   C 699.95 743.54 697.92 721.05 692.32 706.67   C 684.38 686.30 668.69 670.69 652.12 656.71   A 0.33 0.33 0.0 0 1 652.43 656.15   Q 665.38 660.42 679.01 662.61   C 691.60 664.62 702.41 664.41 713.93 661.14   C 735.06 655.15 755.62 642.03 771.63 626.89   C 787.66 611.73 801.00 591.54 804.35 569.83   C 807.80 547.42 793.14 531.41 772.73 524.98   C 752.84 518.71 730.33 518.55 709.99 521.70   C 673.90 527.27 641.00 540.11 609.33 558.35   Q 589.91 569.54 581.45 574.72   A 0.53 0.53 0.0 0 1 580.76 574.59   L 570.42 561.55   A 0.31 0.31 0.0 0 1 570.44 561.13   C 585.71 545.73 589.67 525.86 586.99 504.45   Q 583.96 480.23 566.17 461.47   A 1.28 1.28 0.0 0 1 566.02 459.90   C 573.62 448.05 585.46 435.88 599.03 432.02   Q 604.71 430.41 612.97 429.43   Q 618.99 428.73 622.47 424.21   C 625.04 420.88 624.91 415.24 622.08 411.92   C 613.99 402.42 596.42 408.66 587.31 413.87   C 572.78 422.18 561.48 434.34 552.52 448.38   A 1.00 1.00 0.0 0 1 551.05 448.62   Q 540.50 440.17 528.00 435.80"
       id="path2" />
    <path
       stroke="#f5d98d"
       vector-effect="non-scaling-stroke"
       d="   M 528.00 435.80   Q 527.67 413.74 528.23 407.50   Q 529.47 393.86 534.25 382.23   C 540.07 368.11 546.94 355.27 557.62 344.62   C 569.69 332.60 577.08 325.80 585.87 314.57   Q 606.47 288.25 605.96 254.45   Q 605.57 229.34 594.51 205.48   Q 580.49 175.23 564.42 149.57   Q 537.94 107.26 509.25 69.22   A 0.77 0.77 0.0 0 0 508.29 69.00   Q 508.08 69.11 507.75 69.50   Q 497.20 82.09 487.09 96.08   Q 466.26 124.89 446.62 157.09   Q 430.79 183.05 419.27 208.76   C 410.96 227.30 408.33 247.34 410.24 268.25   C 412.53 293.33 426.16 315.08 444.43 331.84   Q 455.93 342.38 460.80 347.70   Q 472.27 360.19 479.89 377.08   Q 486.77 392.31 487.85 405.24   Q 488.42 412.17 488.54 435.53"
       id="path4" />
    <path
       stroke="#81681c"
       vector-effect="non-scaling-stroke"
       d="   M 528.00 435.80   Q 508.70 429.91 488.54 435.53"
       id="path6" />
    <path
       stroke="#81681c"
       vector-effect="non-scaling-stroke"
       d="   M 607.95 688.23   L 594.01 650.61   A 0.76 0.76 0.0 0 0 593.07 650.15   C 538.52 667.09 479.09 667.59 424.56 650.06   A 1.13 1.12 18.9 0 0 423.16 650.74   L 409.86 686.77   A 0.94 0.94 0.0 0 0 410.26 687.90   Q 428.96 698.72 450.57 703.88   Q 502.25 716.22 554.22 707.16   C 573.36 703.82 591.01 697.99 607.60 689.15   A 0.75 0.74 -24.4 0 0 607.95 688.23"
       id="path8" />
    <path
       stroke="#81681c"
       vector-effect="non-scaling-stroke"
       d="   M 604.17 754.03   C 582.50 766.61 559.10 771.68 533.51 773.98   Q 485.48 778.31 439.88 764.86   Q 425.26 760.55 413.31 754.60   A 0.18 0.18 0.0 0 0 413.05 754.80   Q 417.98 778.19 430.25 799.04   C 432.56 802.96 437.47 805.15 441.94 807.11   C 465.59 817.46 490.54 821.03 516.47 820.04   C 539.55 819.15 560.26 814.71 580.53 804.52   Q 585.24 802.16 587.37 799.67   A 5.18 4.71 -13.2 0 0 587.94 798.84   Q 599.49 777.79 604.47 754.25   A 0.20 0.20 0.0 0 0 604.17 754.03"
       id="path10" />
  </g>
  <path
     fill="#ebb523"
     d="   M 528.00 435.80   Q 508.70 429.91 488.54 435.53   Q 488.42 412.17 487.85 405.24   Q 486.77 392.31 479.89 377.08   Q 472.27 360.19 460.80 347.70   Q 455.93 342.38 444.43 331.84   C 426.16 315.08 412.53 293.33 410.24 268.25   C 408.33 247.34 410.96 227.30 419.27 208.76   Q 430.79 183.05 446.62 157.09   Q 466.26 124.89 487.09 96.08   Q 497.20 82.09 507.75 69.50   Q 508.08 69.11 508.29 69.00   A 0.77 0.77 0.0 0 1 509.25 69.22   Q 537.94 107.26 564.42 149.57   Q 580.49 175.23 594.51 205.48   Q 605.57 229.34 605.96 254.45   Q 606.47 288.25 585.87 314.57   C 577.08 325.80 569.69 332.60 557.62 344.62   C 546.94 355.27 540.07 368.11 534.25 382.23   Q 529.47 393.86 528.23 407.50   Q 527.67 413.74 528.00 435.80   Z"
     id="path16" />
  <path
     fill="#171b14"
     d="   M 488.54 435.53   Q 508.70 429.91 528.00 435.80   Q 540.50 440.17 551.05 448.62   A 1.00 1.00 0.0 0 0 552.52 448.38   C 561.48 434.34 572.78 422.18 587.31 413.87   C 596.42 408.66 613.99 402.42 622.08 411.92   C 624.91 415.24 625.04 420.88 622.47 424.21   Q 618.99 428.73 612.97 429.43   Q 604.71 430.41 599.03 432.02   C 585.46 435.88 573.62 448.05 566.02 459.90   A 1.28 1.28 0.0 0 0 566.17 461.47   Q 583.96 480.23 586.99 504.45   C 589.67 525.86 585.71 545.73 570.44 561.13   A 0.31 0.31 0.0 0 0 570.42 561.55   L 580.76 574.59   A 0.53 0.53 0.0 0 0 581.45 574.72   Q 589.91 569.54 609.33 558.35   C 641.00 540.11 673.90 527.27 709.99 521.70   C 730.33 518.55 752.84 518.71 772.73 524.98   C 793.14 531.41 807.80 547.42 804.35 569.83   C 801.00 591.54 787.66 611.73 771.63 626.89   C 755.62 642.03 735.06 655.15 713.93 661.14   C 702.41 664.41 691.60 664.62 679.01 662.61   Q 665.38 660.42 652.43 656.15   A 0.33 0.33 0.0 0 0 652.12 656.71   C 668.69 670.69 684.38 686.30 692.32 706.67   C 697.92 721.05 699.95 743.54 678.00 744.53   C 657.10 745.47 638.31 734.15 622.38 721.78   A 0.27 0.27 0.0 0 0 621.95 721.99   C 621.24 776.56 599.07 826.70 557.95 862.22   Q 547.80 870.99 536.37 876.78   A 4.77 4.77 0.0 0 0 534.14 879.20   C 529.56 890.40 524.12 904.20 514.70 912.95   C 511.49 915.93 508.01 917.35 504.10 914.22   Q 499.43 910.48 496.02 905.10   Q 488.60 893.39 483.51 880.00   A 6.39 6.36 -86.5 0 0 480.57 876.66   C 457.10 864.15 438.35 844.51 424.17 822.09   C 410.30 800.14 401.51 775.34 397.43 749.84   Q 395.29 736.45 395.57 721.97   A 0.34 0.34 0.0 0 0 395.02 721.69   C 379.71 733.75 361.29 744.65 341.57 744.63   C 329.25 744.62 320.83 738.56 321.26 725.19   C 322.17 697.19 346.23 673.02 366.62 656.51   A 0.39 0.39 0.0 0 0 366.26 655.84   Q 349.90 661.22 333.44 662.64   C 315.53 664.18 296.24 659.28 279.67 650.83   C 252.08 636.76 229.23 613.58 217.26 584.74   Q 212.38 572.99 212.94 560.81   C 214.18 533.65 245.10 522.64 267.52 520.50   Q 286.65 518.68 306.86 521.40   C 345.11 526.55 380.71 540.63 413.47 561.28   Q 423.97 567.90 435.16 574.84   A 0.55 0.55 0.0 0 0 435.88 574.72   L 446.53 561.72   A 0.58 0.58 0.0 0 0 446.48 560.93   C 431.73 546.94 427.78 528.33 429.24 508.43   Q 431.25 481.21 450.78 461.56   A 0.90 0.90 0.0 0 0 450.90 460.44   C 441.47 445.46 427.96 432.94 410.06 430.43   C 403.29 429.48 397.46 429.14 393.87 423.13   Q 392.43 420.71 392.90 416.69   C 393.56 411.00 398.99 407.42 404.29 407.17   C 428.93 406.05 452.25 429.42 464.16 448.72   A 0.75 0.74 56.4 0 0 465.23 448.94   Q 471.29 444.58 474.86 442.10   Q 479.70 438.73 488.54 435.53   Z   M 607.95 688.23   L 594.01 650.61   A 0.76 0.76 0.0 0 0 593.07 650.15   C 538.52 667.09 479.09 667.59 424.56 650.06   A 1.13 1.12 18.9 0 0 423.16 650.74   L 409.86 686.77   A 0.94 0.94 0.0 0 0 410.26 687.90   Q 428.96 698.72 450.57 703.88   Q 502.25 716.22 554.22 707.16   C 573.36 703.82 591.01 697.99 607.60 689.15   A 0.75 0.74 -24.4 0 0 607.95 688.23   Z   M 604.17 754.03   C 582.50 766.61 559.10 771.68 533.51 773.98   Q 485.48 778.31 439.88 764.86   Q 425.26 760.55 413.31 754.60   A 0.18 0.18 0.0 0 0 413.05 754.80   Q 417.98 778.19 430.25 799.04   C 432.56 802.96 437.47 805.15 441.94 807.11   C 465.59 817.46 490.54 821.03 516.47 820.04   C 539.55 819.15 560.26 814.71 580.53 804.52   Q 585.24 802.16 587.37 799.67   A 5.18 4.71 -13.2 0 0 587.94 798.84   Q 599.49 777.79 604.47 754.25   A 0.20 0.20 0.0 0 0 604.17 754.03   Z"
     id="path18" />
  <path
     fill="#ebb523"
     d="   M 607.95 688.23   A 0.75 0.74 -24.4 0 1 607.60 689.15   C 591.01 697.99 573.36 703.82 554.22 707.16   Q 502.25 716.22 450.57 703.88   Q 428.96 698.72 410.26 687.90   A 0.94 0.94 0.0 0 1 409.86 686.77   L 423.16 650.74   A 1.13 1.12 18.9 0 1 424.56 650.06   C 479.09 667.59 538.52 667.09 593.07 650.15   A 0.76 0.76 0.0 0 1 594.01 650.61   L 607.95 688.23   Z"
     id="path20" />
  <path
     fill="#ebb523"
     d="   M 604.17 754.03   A 0.20 0.20 0.0 0 1 604.47 754.25   Q 599.49 777.79 587.94 798.84   A 5.18 4.71 -13.2 0 1 587.37 799.67   Q 585.24 802.16 580.53 804.52   C 560.26 814.71 539.55 819.15 516.47 820.04   C 490.54 821.03 465.59 817.46 441.94 807.11   C 437.47 805.15 432.56 802.96 430.25 799.04   Q 417.98 778.19 413.05 754.80   A 0.18 0.18 0.0 0 1 413.31 754.60   Q 425.26 760.55 439.88 764.86   Q 485.48 778.31 533.51 773.98   C 559.10 771.68 582.50 766.61 604.17 754.03   Z"
     id="path22" />
</svg>
